svg/clockface/clockfacefatsquaresolid/clock_09_20.svg

<?xml version="1.0" encoding="UTF-8" standalone="no"?>
<svg
   height="1000"
   width="1000"
   version="1.1"
   viewBox="0 0 1000 1000"
   id="svg7"
   sodipodi:docname="clock_09_20.svg"
   xmlns:inkscape="http://www.inkscape.org/namespaces/inkscape"
   xmlns:sodipodi="http://sodipodi.sourceforge.net/DTD/sodipodi-0.dtd"
   xmlns="http://www.w3.org/2000/svg"
   xmlns:svg="http://www.w3.org/2000/svg">
  <defs
     id="defs11" />
  <sodipodi:namedview
     id="namedview9"
     pagecolor="#ffffff"
     bordercolor="#000000"
     borderopacity="0.25"
     inkscape:showpageshadow="2"
     inkscape:pageopacity="0.0"
     inkscape:pagecheckerboard="0"
     inkscape:deskcolor="#d1d1d1" />
  <path
     id="path15"
     style="color:#000000;fill:#000000;stroke-width:60;-inkscape-stroke:none"
     d="M 129 129 L 129 159 L 129 869 L 869 869 L 869 129 L 129 129 z M 320 460 L 360 460 L 500 460 A 40.004 40.004 0 0 1 520 465.35938 L 701.86523 570.35938 L 736.50586 590.35938 L 696.50586 659.64062 L 661.86523 639.64062 L 489.28125 540 L 360 540 L 320 540 L 320 460 z " />
</svg>

<svg xmlns="http://www.w3.org/2000/svg" width="1000" height="1000"><path d="M129 129v740h740V129H129zm191 331h180a40.004 40.004 0 0 1 20 5.36l181.865 105 34.64 20-40 69.28-34.64-20L489.281 540H320v-80z" style="-inkscape-stroke:none" stroke-width="60"/></svg>
